icons/check/check-square.svg

<svg width="14" height="14" viewBox="0 0 14 14" fill="none"
    xmlns="http://www.w3.org/2000/svg">
    <path d="M5 7.5L6 8.5L9 5.5" stroke="red" stroke-linecap="round" stroke-linejoin="round"/>
    <path d="M10.5 2.5H3.5C2.94772 2.5 2.5 2.94772 2.5 3.5V10.5C2.5 11.0523 2.94772 11.5 3.5 11.5H10.5C11.0523 11.5 11.5 11.0523 11.5 10.5V3.5C11.5 2.94772 11.0523 2.5 10.5 2.5Z" stroke="green" stroke-linejoin="round"/>
</svg>

<svg xmlns="http://www.w3.org/2000/svg" width="14" height="14" fill="none" viewBox="0 0 14 14"><path stroke="red" stroke-linecap="round" stroke-linejoin="round" d="m5 7.5 1 1 3-3"/><path stroke="green" stroke-linejoin="round" d="M10.5 2.5h-7a1 1 0 0 0-1 1v7a1 1 0 0 0 1 1h7a1 1 0 0 0 1-1v-7a1 1 0 0 0-1-1Z"/></svg>
